X: 1
T: The Virginia
R: reel
M: 4/4
L: 1/8
K: Dmaj
DBBA ~B3A | BAdB AFEF | DF~F2 ~A3B | AFBF AFEF |
DBBA ~B3A | BAdB ABde | ~f3e defe | dBAF BE~E2 :|
|:defe d3A | BAFA dAFA | dffe defg | afbf afeg |
~f3d efdB | AF~F2 ABcd | ~f3e defe | dBAF BE~E2 :|


Tune 812	Setting 25210

